X:070
T:Chapter of Kings,The TS.070
M:6/8
L:1/8
Q:3/8=110
S:Thomas Sands’ MS,1810,Lincolnshire
R:jig
O:England;Lincolnshire
Z:vmp.Ruairidh Greig, 2011
K:C
G|Gcc cBc|d2BG2G|Gdd def|g2ec2(g/f/)|
efg gfe|a2fd2f/e/|f>ef fed|g2ec2G|
Gcc Bdd|ecc fdd|e>fg fed|c2cc2G|
Gcc Bdd|ecc fdd|e>fgn fed|c2cc2|]

